packages/ffe-icons/icons/open/400/sm/devices_fold.svg

<svg xmlns="http://www.w3.org/2000/svg" height="20" viewBox="0 -960 960 960" width="20"><path d="M456-144q-29.7 0-50.85-21.15Q384-186.3 384-216v-558q0-20 9.5-38t27.5-26l120-66q38.214-17 72.607 3.5T648-840v24h144q29.7 0 50.85 21.15Q864-773.7 864-744v528q0 29.7-21.15 50.85Q821.7-144 792-144H456Zm0-122 120-65v-509l-120 66v508Zm60 50h276v-528H648v413q0 19.938-10 36.969Q628-277 611-268l-95 52Zm-60-50v-508 508ZM132.211-744Q117-744 106.5-754.289q-10.5-10.29-10.5-25.5Q96-795 106.289-805.5q10.29-10.5 25.5-10.5Q147-816 157.5-805.711q10.5 10.29 10.5 25.5Q168-765 157.711-754.5q-10.29 10.5-25.5 10.5Zm0 150Q117-594 106.5-604.289q-10.5-10.29-10.5-25.5Q96-645 106.289-655.5q10.29-10.5 25.5-10.5Q147-666 157.5-655.711q10.5 10.29 10.5 25.5Q168-615 157.711-604.5q-10.29 10.5-25.5 10.5ZM96-479.789Q96-495 106.289-505.5q10.29-10.5 25.5-10.5Q147-516 157.5-505.711q10.5 10.29 10.5 25.5Q168-465 157.711-454.5q-10.29 10.5-25.5 10.5Q117-444 106.5-454.289q-10.5-10.29-10.5-25.5ZM132.211-294Q117-294 106.5-304.289q-10.5-10.29-10.5-25.5Q96-345 106.289-355.5q10.29-10.5 25.5-10.5Q147-366 157.5-355.711q10.5 10.29 10.5 25.5Q168-315 157.711-304.5q-10.29 10.5-25.5 10.5Zm0 150Q117-144 106.5-154.289q-10.5-10.29-10.5-25.5Q96-195 106.289-205.5q10.29-10.5 25.5-10.5Q147-216 157.5-205.711q10.5 10.29 10.5 25.5Q168-165 157.711-154.5q-10.29 10.5-25.5 10.5Zm150 0Q267-144 256.5-154.289q-10.5-10.29-10.5-25.5Q246-195 256.289-205.5q10.29-10.5 25.5-10.5Q297-216 307.5-205.711q10.5 10.29 10.5 25.5Q318-165 307.711-154.5q-10.29 10.5-25.5 10.5Zm0-600Q267-744 256.5-754.289q-10.5-10.29-10.5-25.5Q246-795 256.289-805.5q10.29-10.5 25.5-10.5Q297-816 307.5-805.711q10.5 10.29 10.5 25.5Q318-765 307.711-754.5q-10.29 10.5-25.5 10.5Z"/></svg>

<svg xmlns="http://www.w3.org/2000/svg" height="20" viewBox="0 -960 960 960" width="20"><path d="M456-144q-29.7 0-50.85-21.15Q384-186.3 384-216v-558q0-20 9.5-38t27.5-26l120-66q38.21-17 72.61 3.5Q648-880 648-840v24h144q29.7 0 50.85 21.15Q864-773.7 864-744v528q0 29.7-21.15 50.85Q821.7-144 792-144H456Zm0-122 120-65v-509l-120 66v508Zm60 50h276v-528H648v413q0 19.94-10 36.97Q628-277 611-268l-95 52Zm-60-50v-508 508ZM132.21-744q-15.21 0-25.71-10.29T96-779.79q0-15.21 10.29-25.71t25.5-10.5q15.21 0 25.71 10.29t10.5 25.5q0 15.21-10.29 25.71t-25.5 10.5Zm0 150q-15.21 0-25.71-10.29T96-629.79q0-15.21 10.29-25.71t25.5-10.5q15.21 0 25.71 10.29t10.5 25.5q0 15.21-10.29 25.71t-25.5 10.5ZM96-479.79q0-15.21 10.29-25.71t25.5-10.5q15.21 0 25.71 10.29t10.5 25.5q0 15.21-10.29 25.71t-25.5 10.5q-15.21 0-25.71-10.29T96-479.79ZM132.21-294q-15.21 0-25.71-10.29T96-329.79q0-15.21 10.29-25.71t25.5-10.5q15.21 0 25.71 10.29t10.5 25.5q0 15.21-10.29 25.71t-25.5 10.5Zm0 150q-15.21 0-25.71-10.29T96-179.79q0-15.21 10.29-25.71t25.5-10.5q15.21 0 25.71 10.29t10.5 25.5q0 15.21-10.29 25.71t-25.5 10.5Zm150 0q-15.21 0-25.71-10.29t-10.5-25.5q0-15.21 10.29-25.71t25.5-10.5q15.21 0 25.71 10.29t10.5 25.5q0 15.21-10.29 25.71t-25.5 10.5Zm0-600q-15.21 0-25.71-10.29t-10.5-25.5q0-15.21 10.29-25.71t25.5-10.5q15.21 0 25.71 10.29t10.5 25.5q0 15.21-10.29 25.71t-25.5 10.5Z"/></svg>
